picto/gents-toilets.svg

<svg class="color-immutable" width="24" height="24" viewBox="0 0 24 24" fill="none" xmlns="http://www.w3.org/2000/svg"><path d="M0 22.5V1.5C0 0.675 0.675 0 1.5 0H22.5C23.325 0 24 0.675 24 1.5V22.5C24 23.325 23.325 24 22.5 24H1.5C0.675 24 0 23.325 0 22.5Z" fill="#2D327D"/><path d="M7.78699 4.48801C7.78699 3.66001 7.11499 2.98801 6.28699 2.98801C5.45899 2.98801 4.78699 3.66001 4.78699 4.48801C4.78699 5.31601 5.45899 5.98801 6.28699 5.98801C7.11499 5.98801 7.78699 5.31601 7.78699 4.48801Z" fill="white"/><path d="M3 7.875V12.966C3 13.26 3.239 13.5 3.534 13.5C3.829 13.5 4.068 13.261 4.068 12.966V8.625H4.537V20.231C4.537 20.655 4.882 21 5.306 21C5.73 21 6.075 20.656 6.075 20.231V13.481H6.562V20.231C6.562 20.655 6.907 21 7.331 21C7.755 21 8.1 20.655 8.1 20.231V8.625H8.569V12.966C8.569 13.261 8.808 13.5 9.104 13.5C9.399 13.5 9.638 13.261 9.638 12.966V7.875C9.638 7.047 8.966 6.375 8.138 6.375H4.5C3.672 6.375 3 7.047 3 7.875Z" fill="white"/></svg>

<svg class="color-immutable" width="24" height="24" viewBox="0 0 24 24" fill="none" xmlns="http://www.w3.org/2000/svg"><g clip-path="url(#a)"><path d="M0 22.5v-21C0 .675.675 0 1.5 0h21c.825 0 1.5.675 1.5 1.5v21c0 .825-.675 1.5-1.5 1.5h-21C.675 24 0 23.325 0 22.5Z" fill="#2D327D"/><path d="M7.787 4.488a1.5 1.5 0 1 0-3.001.001 1.5 1.5 0 0 0 3.001-.001ZM3 7.875v5.091a.535.535 0 0 0 1.068 0V8.625h.469v11.606a.77.77 0 0 0 1.538 0v-6.75h.487v6.75a.77.77 0 0 0 1.538 0V8.625h.469v4.341a.534.534 0 0 0 1.069 0V7.875a1.5 1.5 0 0 0-1.5-1.5H4.5a1.5 1.5 0 0 0-1.5 1.5Z" fill="#fff"/></g><defs><clipPath id="a"><path fill="#fff" d="M0 0h24v24H0z"/></clipPath></defs></svg>
